!!!!SEGMENT: pl-kk--kk-i-382--006-002_anonim--nro-2-gloria.krn
!!!cenid: 18xx:1462
!!!COM: Anonim
!!!COM-rismid: pe30004985
!!!CDT:
!!!CNT:
!!!OPR: Nro 2
!!!OTL: Gloria
!!!OMV: 003
!!!PDT:
!!!AGN: Sacred
!!!SMS-siglum: PL-Kk
!!!SMS-shelfmark: Kk.I.382
!!!SMS-shelfwork: 002-003 M
!!!SMS-variant:
!!!SMS-altvar:
!!!NIFC-rismid: 1001139089
!!!URL-scan: http://repozytorium.nifc.pl/skany/pl-kk-nut--i-382
!!!ONB-nifc: UWAGA: obsada: S/T 1, T 2, A/B 1, B 2. Skan 0006 (m.in.)
!!!key:
**kern	**text	**kern	**text	**kern	**text	**kern	**text
*part4	*part4	*part3	*part3	*part2	*part2	*part1	*part1
*staff4	*staff4	*staff3	*staff3	*staff2	*staff2	*staff1	*staff1
*Ibass	*	*Itenor	*	*Ialto	*	*Itenor	*
*I"Basso II	*	*I"Tenore II	*	*I"Alto. vel Basso I	*	*I"Soprano vel Tenore I.	*
*I'B2	*	*I'T2	*	*I'A / B1	*	*I'S / T1	*
*clefF4	*	*clefC4	*	*clefC3	*	*clefC1	*
*k[b-]	*	*k[b-]	*	*k[b-]	*	*k[b-]	*
*F:	*	*F:	*	*F:	*	*F:	*
*M4/4	*	*M4/4	*	*M4/4	*	*M4/4	*
*met(c)	*	*met(c)	*	*met(c)	*	*met(c)	*
=1	=1	=1	=1	=1	=1	=1	=1
*	*	*2\right	*	*	*	*	*
!LO:TX:rj:a:t=Gloria	!	!LO:TX:rj:a:t=Gloria	!	!LO:TX:rj:a:t=Gloria	!	!LO:TX:rj:a:t=Gloria	!
!LO:TX:t=P:problem=all\right&colon; global	!	!LO:TX:t=P:problem=2\right&colon; global	!	!LO:TX:t=P:problem=all\right&colon; global	!	!LO:TX:t=P:problem=all\right&colon; global	!
!LO:TX:t=P:problem=skan 0222-3	!	!LO:TX:t=P:problem=skan 0077	!	!LO:TX:t=P:problem=skan 0150	!	!LO:TX:t=P:problem=skan 0006-7	!
(4F\	Et	2.c\	Et	(4a\	Et-	(4ff\	Et
4G\)	.	.	.	8g\L	.	8ee\L	.
.	.	.	.	8b-\J	.	8dd\J)	.
(4A\	in	.	.	4a\)	.	(4cc\	in
!	!	!LO:TX:t=P:problem=all\right&colon; global	!	!	!	!	!
4B-\)	.	4c\	in	4g\	-in	4b-\)	.
=2	=2	=2	=2	=2	=2	=2	=2
4A\	ter-	4c\	ter-	4f\	ter-	4a\	ter-
4G\	-ra	4B-\	-ra	4g\	-ra	4b-\	-ra
4F\	pax	4A\	pax	4a\	pax	4cc\	pax
4F\	ho-	4c\	ho-	4a\	ho-	4cc\	ho-
=3	=3	=3	=3	=3	=3	=3	=3
*	*	*	*	*2\right	*	*2\right	*
!	!	!	!	!LO:TX:t=P:problem=2\right&colon; global	!	!LO:TX:t=P:problem=2\right&colon; global	!
(2BB-/	-mi-	2B-\	-mi-	(2b-\	-mi-	2dd\	-mi-
4C/)	.	(4F/	-ni-	4a\)	.	(4cc\	-ni-
4C/	-ni-	4G/)	.	4g\	-ni-	4b-\)	.
=4	=4	=4	=4	=4	=4	=4	=4
*2\right	*	*	*	*	*	*	*
!LO:TX:t=P:problem=2\right&colon; global	!	!	!	!	!	!	!
2F\	-bus	2c\	-bus	2f\	-bus	2a\	-bus
4F\	bo-	4c\	bo-	4f\	bo-	4a\	bo-
!LO:SIC:l:v:s=-nae	!	!LO:SIC:l:v:s=-nae	!	!LO:SIC:l:v:s=-nae	!	!LO:SIC:l:v:s=-nae	!
4D\	-ne	4d\	-ne	4f\	-ne	4bn\	-ne
!LO:LB:g=original	!	!	!	!	!	!	!
=5	=5	=5	=5	=5	=5	=5	=5
(4E\	vo-	(4e\	vo-	(4g\	vo-	(4cc\	vo-
4BBn/)	.	4d\)	.	4f\)	.	4dd\)	.
(4C/	-lun-	(4c\	-lun-	(4g\	-lun-	(4ee\	-lun-
4D/)	.	4Bn\)	.	4f\)	.	4ff\)	.
!	!	!	!	!LO:LB:g=original	!	!	!
=6	=6	=6	=6	=6	=6	=6	=6
(4E\	-ta-	(2c\	-ta-	(2g\	-ta-	(2ee\	-ta-
4F\	.	.	.	.	.	.	.
4G\	.	2Bn\)	.	2f\)	.	2dd\)	.
4GG/)	.	.	.	.	.	.	.
!	!	!LO:LB:g=original	!	!	!	!LO:LB:g=original	!
=7	=7	=7	=7	=7	=7	=7	=7
2C/	-tis	2G/	-tis	2e\	-tis	2cc\	-tis
2C/	lau-	4G/	lau-	(4e\	lau-	(4g\	lau-
.	.	4A/	.	4f\)	.	4a\)	.
=8	=8	=8	=8	=8	=8	=8	=8
2.C/	-da-	2B-\	-da-	2g\	-da-	2b-\	-da-
.	.	(4A/	-mus	(4f\	-mus-	(4a\	-mus
4E\	-mus	4G/)	.	4e\)	.	4g\)	.
=9	=9	=9	=9	=9	=9	=9	=9
2F\	te	2A\	te	2f\	-te	2a\	te
4C/	be-	4G/	be-	4e\	be-	4g\	be-
4C/	-ne-	4A/	-ne-	4f\	-ne-	4a\	-ne-
=10	=10	=10	=10	=10	=10	=10	=10
2E\	-di-	2B-\	-di-	2g\	-di-	2b-\	-di-
4C/	-ci-	4A/	-ci-	4f\	-ci-	4a\	-ci-
4C/	-mus	4G/	-mus	4e\	-mus	4g\	-mus
!LO:LB:g=original	!	!	!	!	!	!	!
=11	=11	=11	=11	=11	=11	=11	=11
2F\	te	2A\	te	2f\	te	2a\	te
4F\	a-	4A\	a-	4a\	a-	4cc\	a-
4E\	-do-	4B-\	-do-	4g\	-do-	4b-\	-do-
=12	=12	=12	=12	=12	=12	=12	=12
4F\	-ra-	4c\	-ra-	4f\	-ra-	4a\	-ra-
4G\	-mus	4B-\	-mus	4e\	-mus	4b-\	-mus
4A\	te	4A\	te	4f\	te	4cc\	te
4F\	glo-	4c\	glo-	4f\	glo-	4a\	glo-
!	!	!LO:TX:rj:b:i:t=V&colon;S&colon;	!	!	!	!	!
!	!	!LO:PB:g=original	!	!LO:LB:g=original	!	!LO:LB:g=original	!
=13	=13	=13	=13	=13	=13	=13	=13
(4B-\	-ri-	(4B-\	-ri-	2f\	-ri-	(4dd\	-ri-
4A\)	.	4c\)	.	.	.	4cc\)	.
(4G\	-fi-	(4B-\	-fi-	2f\	-fi-	(4b-\	-fi-
4F\)	.	4c\)	.	.	.	4a\)	.
=14	=14	=14	=14	=14	=14	=14	=14
2C/	-ca-	2c\	-ca-	2f\	-ca-	2g\	-ca-
!	!	!	!	!	!	!LO:SIC:v:s=2g	!
2C/	-mus	2c\	-mus	2e\	-mus	2f\	-mus
=15	=15	=15	=15	=15	=15	=15	=15
!	!	!	!	!	!	!LO:SIC:v:s=2f	!
!	!	!	!	!LO:TX:a:t=[segno]	!	!LO:TX:a:t=[segno]	!
1F\	te.	2c\	te,	2f\	te	2g\	te,
!	!	!LO:TX:t=P:problem=kreska końcowa	!	!LO:TX:t=P:problem=kreska końcowa	!	!	!
.	.	2r	.	2r	.	2r	.
=16	=16	=1=6	=16	==16	=16	=16	=16
4BB-/	gra-	4B-\	gra-	4f\	gra-	4dd\	gra-
8D/	-ti-	8B-\	-ti-	8f\	-ti-	8dd\	-ti-
8BB-/	-as	8B-\	-as	8f\	-as	8dd\	-as
!LO:LB:g=original	!	!	!	!	!	!	!
4F\	a-	4A\	a-	4f\	a-	4cc\	a-
8A\	-gi-	8c\	-gi-	8f\	-gi-	8cc\	-gi-
8F\	-mus	8A\	-mus	8f\	-mus	8cc\	-mus
=17	=17	=17	=17	=17	=17	=17	=17
4B-\	ti-	4B-\	ti-	4f\	ti-	4dd\	ti-
4BB-/	-bi	4B-\	-bi	4f\	-bi	4dd\	-bi
4B-\	pro-	4d\	pro-	4f\	pro-	4dd\	pro-
4G\	-pter	4B-\	-pter	4en\	-pter	4b-\	-pter
!	!	!LO:LB:g=original	!	!LO:LB:g=original	!	!LO:LB:g=original	!
=18	=18	=18	=18	=18	=18	=18	=18
4A\	ma-	4c\	ma-	4f\	ma-	4cc\	ma-
4F\	-gnam	4A\	-gnam	4f\	-gnam	4a\	-gnam
4G\	glo-	(8c\L	glo-	4e\	glo-	(8cc\L	glo-
.	.	8B-\J)	.	.	.	8b-\J)	.
8F\	-ri-	8A\	-ri-	8e\	-ri-	8a\	-ri-
8E\	-am	8G\	-am	8e\	-am	8g\	-am
=19	=19	=19	=19	=19	=19	=19	=19
4F\	tu-	4A\	tu-	4c\	tu-	4a\	tu-
4F\	-am	4A\	-am	4c\	-am	4a\	-am
(8A\L	Do-	(8c\L	Do-	4e-X\	Do-	4cc\	Do-
8F\J)	.	8A\J)	.	.	.	.	.
8G\	-mi-	8B-\	-mi-	8e-\	-mi-	8cc\	-mi-
8A\	-ne	8c\	-ne	8e-\	-ne	8cc\	-ne
!LO:LB:g=original	!	!	!	!	!	!	!
=20	=20	=20	=20	=20	=20	=20	=20
4B-\	De-	4d\	De-	4f\	De-	4b-\	De-
4BB-/	-us	4d\	-us	4f\	-us	4b-\	-us
(8A\L	rex	(8c\L	rex	4f\	rex	4ee-X\	Rex
8F\J)	.	8A\J)	.	.	.	.	.
!LO:SIC:l:v:s=coe-	!	!LO:SIC:l:v:s=coe-	!	!LO:SIC:l:v:s=coe-	!	!LO:SIC:l:v:s=coe-	!
(8G\L	ce-	(8B-\L	ce-	4f\	ce-	4ee-\	ce-
8A\J)	.	8c\J)	.	.	.	.	.
=21	=21	=21	=21	=21	=21	=21	=21
4B-\	-le-	4d\	-le-	4f\	-le-	4dd\	-le-
4BB-/	-stis	4d\	-stis	4f\	-stis	4b-\	-stis
!	!	!LO:LB:g=original	!	!	!	!LO:LB:g=original	!
4D\	De-	4B-\	De-	4f\	De-	4dd\	De-
4D\	-us	4B-\	-us	4f\	-us	4dd\	-us
!	!	!	!	!LO:LB:g=original	!	!	!
=22	=22	=22	=22	=22	=22	=22	=22
4E-X\	pa-	4B-\	pa-	4g\	pa-	4b-\	pa-
8D\	-ter	8B-\	-ter	8f\	-ter	8b-\	-ter
8E-\	om-	8B-\	om-	8g\	om-	8b-\	om-
4F\	-ni-	4A\	-ni-	4f\	-ni-	4cc\	-ni-
4F\	-po-	4A\	-po-	4f\	-po-	4cc\	-po-
=23	=23	=23	=23	=23	=23	=23	=23
2BB-/	-tens	2F/	-tens	2f\	-tens	2b-\	-tens
!	!	!	!	!	!	!LO:N:vis=8	!
(8G\L	Do-	(8B-\L	Do-	4g\	Do-	4dd\	Do-
8A\J)	.	8c\J)	.	.	.	.	.
8B-\	-mi-	8d\	-mi-	8g\	-mi-	8dd\	-mi-
8G\	-ne	8B-\	-ne	8g\	-ne	8dd\	-ne
!	!	!	!	!	!	!LO:TX:rj:b:t=V&colon;S&colon;	!
!LO:LB:g=original	!	!	!	!	!	!LO:PB:g=original	!
=24	=24	=24	=24	=24	=24	=24	=24
4D\	fi-	4A\	fi-	4f#X\	fi-	4dd\	fi-
4D\	-li	4A\	-li	4f#\	-li	4dd\	-li
(8D\L	u-	(8F#X/L	u-	4a\	u-	4cc\	u-
8E\J)	.	8G/J)	.	.	.	.	.
(8F#X\L	-ni-	(8A/L	-ni-	4f#\	-ni-	4a\	-ni-
8D\J)	.	8F#/J)	.	.	.	.	.
!	!	!LO:LB:g=original	!	!	!	!	!
=25	=25	=25	=25	=25	=25	=25	=25
8G\	-ge-	8G/	-ge-	8d\	-ge-	8b-\	-ge-
8G\	-ni-	8G/	-ni-	8d\	-ni-	8b-\	-ni-
4G\	-te	4G/	-te	4d\	-te	4b-\	-te
4F#X\	Je-	4A/	Je-	4e-X\	Je-	4cc\	Je-
4G\	-su	4G/	-su	4d\	-su	4b-\	-su
!	!	!	!	!LO:TX:rj:b:t=V&colon;S&colon;	!	!	!
!	!	!	!	!LO:PB:g=original	!	!	!
=26	=26	=26	=26	=26	=26	=26	=26
4A\	Je-	4c\	Je-	4f#X\	Je-	4a\	Je-
4G\	-su	4B-\	-su	4g\	-su	4b-\	-su
2D\	Chri-	2d\	Chri-	(4g\	Chri-	(4b-\	Chri-
.	.	.	.	4f#\)	.	4a\)	.
=27	=27	=27	=27	=27	=27	=27	=27
2G\	-ste	2d\	-ste	2g\	-ste	2b-\	-ste
4Fn\	Do-	4d\	Do-	4g\	Do-	4bn\	Do-
8F\	-mi-	8d\	-mi-	8g\	-mi-	8b\	-mi-
8F\	-ne	8d\	-ne	8g\	-ne	8b\	-ne
!LO:LB:g=original	!	!	!	!	!	!LO:LB:g=original	!
=28	=28	=28	=28	=28	=28	=28	=28
4E-X\	De-	4e-X\	De-	4g\	De-	4cc\	De-
4C\	-us	4c\	-us	4g\	-us	4ee-X\	-us
4F\	a-	4A\	a-	4fn\	a-	4cc\	a-
4E-\	-gnus	4A\	-gnus	4f\	-gnus	4cc\	-gnus
!	!	!LO:LB:g=original	!	!	!	!	!
=29	=29	=29	=29	=29	=29	=29	=29
8D/L	De-	(8f\L	De-	4f\	De-	(8b-\L	De-
8C/J	.	8e-X\J)	.	.	.	8cc\J)	.
4BB-/	-i	4d\	-i	4f\	-i	4dd\	-i
4AA/	fi-	4c\	fi-	4f\	fi-	4ee-X\	fi-
8BB-/	-li-	8B-\	-li-	8f\	-li-	8dd\	-li-
8BB-/	-us	8B-\	-us	8f\	-us	8dd\	-us
=30	=30	=30	=30	=30	=30	=30	=30
(8F\L	pa-	(2B-\	pa-	8d\L	pa-	(2dd\	pa-
8E-X\	.	.	.	8e-X\	.	.	.
8D\	.	.	.	8f\	.	.	.
8E-\J	.	.	.	8e-\J	.	.	.
2F\)	.	2A\)	.	2f\	.	2cc\)	.
!	!	!	!	!LO:LB:g=original	!	!	!
=31	=31	=31	=31	=31	=31	=31	=31
2BB-/	-tris	2B-\	-tris	2f\	-tris	2dd\	-tris
2B-\	qui	2B-\	qui	2f\	qui	2dd\	qui
=32	=32	=32	=32	=32	=32	=32	=32
2A-X\	tol-	2B-\	tol-	2f\	tol-	2dd\	tol-
4A-\	-lis	4B-\	-lis	4f\	-lis	4dd\	-lis
4A-\	pec-	4B-\	pec-	4f\	pec-	4dd\	pec-
!LO:LB:g=original	!	!	!	!	!	!LO:LB:g=original	!
=33	=33	=33	=33	=33	=33	=33	=33
2G\	-ca-	2G/	-ca-	2e-X\	-ca-	2b-\	-ca-
2F\	-ta	2A-X/	-ta	2f\	-ta	2b-\	-ta
=34	=34	=34	=34	=34	=34	=34	=34
(4E-X\	mun-	(4B-\	mun-	(4g\	mun-	(2.b-\	mun-
4F\	.	4A-X\	.	4a-X\	.	.	.
4G\	.	4G\	.	4g\	.	.	.
4A-X\)	.	4F\)	.	4f\)	.	4cc\)	.
=35	=35	=35	=35	=35	=35	=35	=35
2B-\	-di	2B-\	-di	2f\	-di	2dd\	-di
4Bn\	mi-	4A-X\	mi-	4f\	mi-	4dd\	mi-
4B\	-se-	4A-\	-se-	4f\	-se-	4dd\	-se-
!	!	!LO:LB:g=original	!	!	!	!	!
=36	=36	=36	=36	=36	=36	=36	=36
(4c\	-re-	2.G/	-re-	2g\	-re-	2ee-X\	-re-
4G\)	.	.	.	.	.	.	.
(4E-X\	-re	.	.	(4e-X\	-re	(4cc\	-re
4C\)	.	4c\	-re	4g\)	.	4ee-\)	.
=37	=37	=37	=37	=37	=37	=37	=37
(4F\	no-	(2c\	no-	(2a-X\	no-	1dd\	no-
4D\	.	.	.	.	.	.	.
4G\	.	2Bn\)	.	2g\)	.	.	.
4GG/)	.	.	.	.	.	.	.
!	!	!	!	!LO:LB:g=original	!	!	!
=38	=38	=38	=38	=38	=38	=38	=38
2C/	-bis	2c\	-bis	2g\	-bis	2ee-X\	-bis
2C/	qui	2c\	qui	2g\	qui	2ee-\	qui
!LO:TX:rj:b:t=V&colon;S&colon;	!	!	!	!	!	!	!
!LO:PB:g=original	!	!	!	!	!	!	!
=39	=39	=39	=39	=39	=39	=39	=39
(2BBn/	tol-	1d\	tol-	1a-X\	tol-	1ff\	tol-
2C/)	.	.	.	.	.	.	.
=40	=40	=40	=40	=40	=40	=40	=40
2C/	-lis	2c\	-lis	2g\	-lis	2ee-X\	-lis
2GG/	pec-	2Bn\	pec-	2g\	pec-	2dd\	pec-
!	!	!	!	!	!	!LO:LB:g=original	!
=41	=41	=41	=41	=41	=41	=41	=41
(4C\	-ca-	(4c\	-ca-	2.g\	-ca-	(4ee-X\	-ca-
4D\)	.	4Bn\)	.	.	.	4dd\)	.
(4E-X\	-ta	(4G/	-ta	.	.	2cc\	-ta
4F\)	.	4A-X/)	.	4g\	-ta	.	.
=42	=42	=42	=42	=42	=42	=42	=42
4G\	mun-	4Bn\	mun-	4g\	mun-	4dd\	mun-
4GG/	-di	4B\	-di	4g\	-di	4dd\	-di
2r	.	2r	.	2r	.	2r	.
=43	=43	=43	=43	=43	=43	=43	=43
2E-X\	sus-	2B-X\	sus-	2g\	Sus-	2ee-X\	sus-
4E-\	-ci-	4B-\	-ci-	4g\	-ci-	4ee-\	-ci-
4E-\	-pe	4B-\	-pe	4g\	-pe	4ee-\	-pe
=44	=44	=44	=44	=44	=44	=44	=44
4D\	de-	4B-\	de-	4f\	de-	4dd\	de-
4BB-/	-pre-	4B-\	-pre-	4d\	-pre-	4dd\	-pre-
!	!	!LO:LB:g=original	!	!	!	!	!
4D\	-ca-	4B-\	-ca-	4f\	-ca-	4dd\	-ca-
4BB-/	-ti-	4B-\	-ti-	4d\	-ti-	4dd\	-ti-
=45	=45	=45	=45	=45	=45	=45	=45
(4E-X\	-o-	(4G/	-o-	(4g\	-o-	(4ee-X\	-o-
4F\)	.	4A-X\)	.	4f\)	.	4dd\)	.
!LO:LB:g=original	!	!	!	!	!	!	!
(4G\	-nem	(4B-\	-nem	(4e-X\	-nem	(4b-\	-nem
4A-X\)	.	4c\)	.	4f\)	.	4a-X\)	.
!	!	!	!	!LO:LB:g=original	!	!	!
=46	=46	=46	=46	=46	=46	=46	=46
(2B-\	no-	(2G/	no-	(2e-X\	no-	1b-\	no-
2BB-/)	.	2F/)	.	2d\)	.	.	.
=47	=47	=47	=47	=47	=47	=47	=47
2E-X\	-stram	2G/	-stram	2e-X\	-stram	2b-\	-stram
2En\	qui	2G/	qui	2c\	qui	2b-\	qui
!	!	!	!	!	!	!LO:LB:g=original	!
=48	=48	=48	=48	=48	=48	=48	=48
2E\	se-	2G/	se-	2c\	se-	2b-\	se-
2E\	-des	2G/	-des	2c\	-des	2b-\	-des
=49	=49	=49	=49	=49	=49	=49	=49
4r	.	4r	.	4r	.	4r	.
4E\	a	4G/	a	4c\	a	4b-\	a
!	!	!LO:SIC:l:v:s=dex-	!	!LO:SIC:l:v:s=dex-	!	!	!
4E\	dex-	4G/	de-	4c\	de-	4b-\	dex-
!	!	!LO:SIC:l:v:s=-te-	!	!LO:SIC:l:v:s=-te-	!	!	!
8E\	-te-	8G/	-xe-	8c\	-xe-	8b-\	-te-
8E\	-ram	8G/	-ram	8c\	-ram	8b-\	-ram
=50	=50	=50	=50	=50	=50	=50	=50
2F\	pa-	2F/	pa-	2c\	pa-	2a-X\	Pa-
2F\	-tris	2F/	-tris	2c\	-tris	2a-\	-tris
=51	=51	=51	=51	=51	=51	=51	=51
2D\	mi-	2B-\	mi-	2a-X\	mi-	2ff\	mi-
2E-X\	-se-	2B-\	-se-	2g\	-se-	2ee-X\	-se-
!LO:LB:g=original	!	!LO:LB:g=original	!	!	!	!	!
=52	=52	=52	=52	=52	=52	=52	=52
2A-X\	-re-	2B-\	-re-	2f\	-re-	2dd\	-re-
2G\	-re	2G/	-re	2e-X\	-re	2b-\	-re
=53	=53	=53	=53	=53	=53	=53	=53
(4E-X\	no-	1B-\	no-	(2e-X\	no-	(2g\	no-
4G\	.	.	.	.	.	.	.
4B-\	.	.	.	2d\)	.	2f\)	.
4BB-/)	.	.	.	.	.	.	.
!	!	!	!	!LO:LB:g=original	!	!	!
=54	=54	=54	=54	=54	=54	=54	=54
2E-X\	-bis	2B-\	-bis	2.e-X\	-bis	2.g\	-bis,
2r	.	2r	.	.	.	.	.
.	.	.	.	4r	.	4r	.
!	!	!	!	!	!	!LO:LB:g=original	!
=55	=55	=55	=55	=55	=55	=55	=55
4C\	Quo-	4c\	Quo-	4g\	Quo-	4ee-X\	Quo-
4D\	-ni-	4G/	-ni-	4f\	-ni-	4dd\	-ni-
4E-X\	-am	4G/	-am	4e-X\	-am	4cc\	-am
4F\	tu	4G/	tu	4d\	tu	4bn\	tu
=56	=56	=56	=56	=56	=56	=56	=56
(4G\	so-	2.G/	so-	(4e-X\	so-	(4cc\	so-
4F\)	.	.	.	4d\)	.	4bn\)	.
(4E-X\	-lus	.	.	(4e-\	-lus	(4cc\	-lus
4D\)	.	4G/	-lus	4f\)	.	4dd\)	.
=57	=57	=57	=57	=57	=57	=57	=57
4C/	san-	4G/	san-	4e-X\	san-	4cc\	san-
4GG/	-ctus	4G/	-ctus	4d\	-ctus	4bn\	-ctus
2r	.	2r	.	4r	.	4r	.
.	.	.	.	8d\L	tu	(8b\L	tu
.	.	.	.	8e-\J	.	8cc\J)	.
!LO:LB:g=original	!	!	!	!	!	!	!
=58	=58	=58	=58	=58	=58	=58	=58
4r	.	4r	.	2f\	so-	2.dd\	so-
4G\	tu	4Bn\	tu	.	.	.	.
4Bn\	so-	4d\	so-	(4e-X\	-lus	.	.
4G\	-lus	4B\	-lus	4d\)	.	4bn\	-lus
=59	=59	=59	=59	=59	=59	=59	=59
4c\	Do-	4G/	Do-	4.e-X\	Do-	4.cc\	Do-
(8G\L	-mi-	4Bn\	-mi-	.	.	.	.
8E-X\J)	.	.	.	8f\	-mi-	8dd\	-mi-
4C/	-nus	4c\	-nus	4g\	-nus	4ee-X\	-nus
4C/	tu	4c\	tu	4g\	tu	4ee-\	tu
!	!	!LO:LB:g=original	!	!LO:LB:g=original	!	!LO:LB:g=original	!
=60	=60	=60	=60	=60	=60	=60	=60
4C/	so-	4c\	so-	4g\	so-	4ee-X\	so-
8BBn/	-lus	8d\	-lus	8a-X\	-lus	8ff\	-lus
8C/	al-	8c\	al-	8g\	al-	8ee-\	al-
4F\	-tis-	4A-X\	-tis-	4f\	-tis-	4dd\	-tis-
4F#X\	-si-	4An\	-si-	4e-X\	-si-	4cc\	-si-
=61	=61	=61	=61	=61	=61	=61	=61
2G\	-mus	2G/	-mus	2.d\	-mus	2.bn\	-mus
2r	.	2r	.	.	.	.	.
.	.	.	.	4r	.	4r	.
=62	=62	=62	=62	=62	=62	=62	=62
(4G\	Je-	(4Bn\	Je-	1f\	Je-	(1dd\	Je-
4A\)	.	4c\)	.	.	.	.	.
(4Bn\	-su	(4d\	-su	.	.	.	.
4G\)	.	4B\)	.	.	.	.	.
!LO:LB:g=original	!	!	!	!	!	!	!
=63	=63	=63	=63	=63	=63	=63	=63
(4c\	Je-	2c\	Je-	1g\	-su	2een\)	.
4G\)	.	.	.	.	.	.	.
(4En\	-su	2c\	-su	.	.	2cc\	-su
4C\)	.	.	.	.	.	.	.
=64	=64	=64	=64	=64	=64	=64	=64
4F\	Je-	(2An/	Chri-	(2f\	Chri-	(2dd\	Chri-
4D\	-su	.	.	.	.	.	.
4G\	chri-	2G/)	.	2d\)	.	2bn\)	.
4GG/	.	.	.	.	.	.	.
=65	=65	=65	=65	=65	=65	=65	=65
!	!	!	!	!LO:TX:a:t=[segno]	!	!LO:TX:a:t=[segno]	!
2C/	-ste	2G/	-ste	2en\	-ste	2cc\	-ste
2c\	Cum	2c\	Cum	2g\	cum	2een\	Cum
!	!	!	!	!	!	!LO:LB:g=original	!
=66	=66	=66	=66	=66	=66	=66	=66
2B-X\	san-	2c\	san-	2g\	san-	2ee\	san-
2B-\	-cto	2c\	-cto	2g\	-cto	2ee\	-cto
!	!	!	!	!LO:LB:g=original	!	!	!
=67	=67	=67	=67	=67	=67	=67	=67
4A\	spi-	4c\	spi-	4f\	spi-	4cc\	spi-
4G\	-ri-	4c\	-ri-	4e\	-ri-	4cc\	-ri-
!	!	!LO:LB:g=original	!	!	!	!	!
4A\	-tu	4c\	-tu	4f\	-tu	4cc\	-tu
4F\	in	4c\	in	4a\	in	4cc\	in
=68	=68	=68	=68	=68	=68	=68	=68
4c\	glo-	4en\	glo-	4g\	glo-	4b-X\	glo-
8C/	-ri-	8e\	-ri-	8g\	-ri-	8b-\	-ri-
8C/	-a	8e\	-a	8g\	-a	8b-\	-a
!LO:LB:g=original	!	!	!	!	!	!	!
4E\	De-	4c\	De-	4g\	De-	4b-\	De-
4C/	-i	4e\	-i	4e\	-i	4g\	-i
=69	=69	=69	=69	=69	=69	=69	=69
(4F\	pa-	2.c\	pa-	(4a\	pa-	(4cc\	pa-
4C\)	.	.	.	4g\)	.	4b-\)	.
(4AA/	-tris	.	.	(4f\	-tris	(4a\	-tris
4BB-/)	.	4d\	-tris	4g\)	.	4b-\)	.
=70	=70	=70	=70	=70	=70	=70	=70
1C/	A-	1c\	A-	(2f\	a-	(2a\	a-
.	.	.	.	2e\)	.	2g\)	.
!	!	!	!	!	!	!LO:LB:g=original	!
=71	=71	=71	=71	=71	=71	=71	=71
2F\	-men	2c\	-men	2f\	-men	2a\	-men
2C/	a-	2e\	a-	2g\	a-	2b-\	a-
=72	=72	=72	=72	=72	=72	=72	=72
1F/ 1FF/	-men.	1f\	-men.	1a\	-men.	1cc\	-men.
==	==	==	==	==	==	==	==
*-	*-	*-	*-	*-	*-	*-	*-
!!!system-decoration: [(s1,s2,s3,s4)]
!!!EED: Leszek Kubiak
!!!EST: 2021-02-03
!!!AIN: 1 alto 1 bass 2 tenor
!!!ENC: Andrzej Borzym
!!!END: 2021-01-28
